X: 416
T: Bonaparte Crossing the Rockies
C:Old Time
B: jims roots
M:4/4
L:1/8
Q: 1/4=100
K:C
V:1 
%Q:1/8=400
cB|:"Am"[e2A2]AB AGEG|"C"cdec "G"d2eg|"Am"aged cAGE|
"G"G2GA "Em"G2cB|"Am"[e2A2]AB AGEG|"C"cdec "G"d2eg|
"Am"aged "G"cABG|[1 "Am"[e3A3][eB] [e2A2]cB:|[2 "Am"[e3A3][eB] [e2A2]eg ||
|:"A"aged ^cdeg|age^c "D"d2eg|"Am"aged cAGE|
"G"G2GA "Em"G2cB|"Am"A2AB AGEG|"C"cdec "G"d2eg|
"Am"aged cABG|[1"Am" [e3A3][eB] [e2A2]eg:|2 "Am"[e3A3][eB] [e4A4]||
% abcbook-tune_id 6298c245e29683f35f93f7f5


% abcbook-boost 0
% abcbook-tablature 
% abcbook-transpose 
% abcbook-lastupdated 1654178373438
% abcbook-soundfonts 
% abcbook-repeats 1


